X:1     
T:Lake of Colphin
B: Purslow, F, (1968), The Wanton Seed, EDFS, London
S:George Haterill, Bath, Somerset. Jan 1906
Z:Hammond S.279
F:http://www.folkinfo.org/songs
M:3/4     %Meter
L:1/8     %
K:Bb
F2 |E2 F2 E2 |D2 B,2 F2 |E2 C2 A,2 |B,4
w:'Twas ear-ly one morn-ing young Wil-lie a-rose,
(AB) |(cB) (AG)(FA) |cd B2 (cB) |A2 F2 G2 |F4
w:Straight-*way_ to_ his_ com-e-rades bed-*cham-ber he goes,
AB |cB AG FA |cd B2 AG |F2 E2 D2 | C4
w:Say-ing "Com-e-rades_ roy-al com-e-rades, let_ no-bo-dy know,
DC |B,2 B2 (AG) |F2 D2 B,3/2B,/ |(CB,) B,2 B,2 | B,4 z2 |]
w:For it is a fine_ morn-ing and a bath-*ing we'll :go." 